X:120
T:Pere Leon (Reel De)
M:4/4
L:1/8
S:from Portland Collection
K:G
d||:"G"g2gf gedc|BGAc BGG2|BGBd "C"cBAG|"D"FGAB A2 (3def
  |"G"g2gf gedc|BGAc BGG2|BGBd "C"cBAG|1"D"FGAF G2 (3def:||2"D"FGAF G2 A
2
||:"G"B3d "C"cBAG|"G"BGBd "C"cBAG|"G"BGBd "C"cBAG|"C"FGAB "D"A4
  |"G"B3d "C"cBAG|"G"BGBd "C"cBAG|"G"BGBd "C"cBAG|1"D"FGAF "G"G2 A2:||2"
D"FGAF "G"G2 (3def||
